dist/svg/file-add-o.svg

<!-- Generated by Trend Micro Style Portal -->
<svg version="1.1" xmlns="http://www.w3.org/2000/svg" width="16" height="16" viewBox="0 0 16 16">
  <title>file-add-o</title>
  <path fill="rgb(34,34,34)" d="M16 11v2h-3v3h-2v-3h-3v-2h3v-3h2v3h3zM2 15h8v1h-8c-0.5 0-1-0.5-1-1v-14c0-0.5 0.5-1 1-1h9l4 4v6h-1v-5h-4v-4h-8v14zM11 4h2.6l-2.6-2.6v2.6z"></path>
</svg>

<svg width="16" height="16" viewBox="0 0 16 16" fill="rgb(34, 34, 34)" xmlns="http://www.w3.org/2000/svg"><title>file-add-o</title><path d="M16 11V13H13V16H11V13H8V11H11V8H13V11H16ZM2 15H10V16H2C1.5 16 1 15.5 1 15V1C1 0.5 1.5 0 2 0H11L15 4V10H14V5H10V1H2V15ZM11 4H13.6L11 1.4V4Z" fill="rgb(34, 34, 34)" fill-opacity="1.00"/></svg>
